images/social/instagram@2x.svg

<svg height="30" viewBox="0 0 30 30" width="30" xmlns="http://www.w3.org/2000/svg"><g fill="none" fill-rule="evenodd"><rect fill-rule="nonzero" height="16" rx="4" stroke="#000" stroke-width="1.4" width="16" x="7" y="7"/><g fill="#000"><path d="m9.84352679 4.99799107c-.05625 2.65178572-2.19174108 4.78727679-4.84352679 4.84352679-2.65178571-.05625-4.78727679-2.19174107-4.84352679-4.84352679.05625-2.65178571 2.19174108-4.78727678 4.84352679-4.84352678 2.66986607-.00401786 4.83950893 2.15558035 4.84352679 4.82745535zm-8.30290179 0c0 1.91049107 1.54888393 3.459375 3.459375 3.459375s3.46138393-1.54888393 3.46138393-3.459375-1.54888393-3.46138393-3.46138393-3.46138393c-1.90848214.00602679-3.45535714 1.55290179-3.459375 3.46138393z" fill-rule="nonzero" transform="translate(10 10)"/><path d="m20.8 10c-.0243832.3753623-.3251089.6736232-.701016.7-.3759071-.0263768-.6746008-.3246377-.698984-.7.0243832-.37536232.3251089-.67362319.701016-.7.3759071.02637681.6746008.32463768.698984.7z"/></g></g></svg>

<?xml version="1.0" encoding="UTF-8"?>
<svg width="30px" height="30px" viewBox="0 0 30 30" version="1.1" xmlns="http://www.w3.org/2000/svg" xmlns:xlink="http://www.w3.org/1999/xlink">
    <!-- Generator: Sketch 52.2 (67145) - http://www.bohemiancoding.com/sketch -->
    <title>投资组合/instagram@2x</title>
    <desc>Created with Sketch.</desc>
    <g id="投资组合/instagram" stroke="none" stroke-width="1" fill="none" fill-rule="evenodd">
        <rect id="Rectangle" stroke="#000000" stroke-width="1.4" fill-rule="nonzero" x="7" y="7" width="16" height="16" rx="4"></rect>
        <g id="instgram" transform="translate(10.000000, 10.000000)" fill="#000000" fill-rule="nonzero">
            <path d="M9.84352679,4.99799107 C9.78727679,7.64977679 7.65178571,9.78526786 5,9.84151786 C2.34821429,9.78526786 0.212723214,7.64977679 0.156473214,4.99799107 C0.212723214,2.34620536 2.34821429,0.210714286 5,0.154464286 C7.66986607,0.150446429 9.83950893,2.31004464 9.84352679,4.98191964 L9.84352679,4.99799107 Z M1.540625,4.99799107 C1.540625,6.90848214 3.08950893,8.45736607 5,8.45736607 C6.91049107,8.45736607 8.46138393,6.90848214 8.46138393,4.99799107 C8.46138393,3.0875 6.9125,1.53660714 5,1.53660714 C3.09151786,1.54263393 1.54464286,3.08950893 1.540625,4.99799107 Z" id="Shape"></path>
        </g>
        <path d="M20.8,10 C20.7756168,10.3753623 20.4748911,10.6736232 20.098984,10.7 C19.7230769,10.6736232 19.4243832,10.3753623 19.4,10 C19.4243832,9.62463768 19.7251089,9.32637681 20.101016,9.3 C20.4769231,9.32637681 20.7756168,9.62463768 20.8,10 Z" id="Path" fill="#000000"></path>
    </g>
</svg>
